X:171
T:Lost Is My Quiet Forever. RHu.167
T:Banks and Braes of Bonnie Doon,aka. RHu.167
S:R.Hughes MS,1823,Whitchurch,Shrops.
N:I’ve left out grace notes. Song written below music line. Lost lost
N:lost is my quiet for ever
N:since my Henery has left me to mourn…
A:Whitchurch, Shropshire
Z:Tony Weatherall 2006
M:6/8
L:1/8
Q:3/8=80
R:Air
K:Bb
B3″ see notes”3c3|d>fd cBc|d>cB BGF|FBd c2z|!
B3c3|dfb fdB|Ggf edc|B2BB2z|!
B3c3|d>fd cBc|d>cB BGF|FBd {d}c3|!
B3c3|d>fd cBc|d>cB BGF|FGB B3|!
f2g fdB|f2g fdB|fdB fdB|f2e/d/c3|!
B3c3|d>fd cBc|d>cB BGF|FGB B3|!
B3c3|dfb fdB|Ggf edc|B2BB2z|]

